X: 1
T:Kuhhorn
S:Moench von Salzburg
K:F
M:3/8
L:1/8
F2F |A2B|c2c|c2c|f2f|c2c|c2c|A2A|c3-|c3|
F2F |A2B|c2c|c2c|f2f|c2c|c2c|A2A|c3-|c3|
F2F |A2B|c2c|c2c|f2f|c2c|c2c|A2A|c3-|c3||
